logos/trpc.svg

<?xml version="1.0" encoding="UTF-8"?>
<svg width="256px" height="305px" viewBox="0 0 256 305" version="1.1" xmlns="http://www.w3.org/2000/svg" preserveAspectRatio="xMidYMid">
    <title>tRPC</title>
    <g>
        <path d="M28.5708704,244.484126 L50.5523102,244.484126 L50.5523102,255.637394 L28.5708704,255.637394 L28.5708704,280.944808 C28.5265342,282.76088 28.7756436,284.572201 29.3085865,286.30888 C29.7121055,287.598035 30.4296418,288.766716 31.3966983,289.709876 C32.3287945,290.587845 33.462351,291.223324 34.6976653,291.560418 C35.9319973,291.889839 37.2008066,292.069526 38.4767452,292.09608 L39.0239328,292.098076 C40.1742698,292.098076 41.3621178,292.098076 42.5874768,291.935528 L43.3140897,291.845602 L43.3140897,291.845602 L44.7229024,291.686155 C45.1842376,291.631939 45.6383706,291.572922 46.0885025,291.4979 L46.7480957,291.393169 L46.7480957,291.393169 L47.9898595,291.208915 C48.3901768,291.148297 48.7792908,291.085279 49.1644036,291.010257 L50.0822651,290.826407 C50.2279097,290.796305 50.3699652,290.766435 50.5085474,290.736739 L51.2992883,290.560183 C51.4244408,290.53095 51.5463515,290.501775 51.6651363,290.472599 L53.1405685,300.863143 C51.9529863,301.533204 50.6949825,302.069952 49.3894696,302.463612 C47.9103362,302.931157 46.4026028,303.30287 44.8756472,303.576438 C43.2751783,303.876526 41.6121911,304.101592 39.8741819,304.26414 C38.1361727,304.426688 36.4606818,304.501709 34.785191,304.501709 C31.8202805,304.544468 28.8669683,304.122566 26.0326267,303.251343 C23.5070202,302.464809 21.2023779,301.094018 19.305656,299.250171 C17.3517683,297.337201 15.8779159,294.98932 15.0043958,292.398164 C13.9175935,289.178052 13.40136,285.792914 13.4789489,282.395233 L13.4789489,255.637394 L0,255.637394 L0,244.484126 L13.4414379,244.484126 L13.4414379,230.067403 L28.5708704,230.067403 L28.5708704,244.484126 Z M82.449155,273.755202 L82.449155,303.363876 L67.157175,303.363876 L67.157175,224.128163 L93.7774739,224.128163 C97.8028459,224.078186 101.814912,224.600218 105.693465,225.678617 C109.004878,226.592911 112.108472,228.138339 114.833643,230.22995 C117.339864,232.227503 119.326013,234.801346 120.622839,237.732148 C122.046484,240.990027 122.746119,244.518067 122.673439,248.072678 C122.706781,250.654818 122.365635,253.228156 121.660643,255.712416 C120.452308,260.03132 117.849851,263.829501 114.258474,266.515581 C112.430527,267.899417 110.450441,269.069849 108.356745,270.004103 L125.386734,302.701182 L125.386734,303.413891 L108.944417,303.413891 L94.0400508,273.755202 L82.449155,273.755202 Z M82.4616587,261.326561 L93.7774739,261.326561 C95.904348,261.36795 98.0215231,261.029202 100.029305,260.326267 C101.709053,259.729836 103.216273,258.729317 104.418091,257.412914 C105.354379,256.369363 106.072805,255.149315 106.53121,253.824363 C106.979269,252.465968 107.222724,251.0495 107.25446,249.621447 L107.256423,249.085474 C107.293697,247.183338 106.971284,245.291283 106.306144,243.50884 C105.708477,241.956053 104.72779,240.579651 103.455309,239.507668 C102.230793,238.519537 100.824829,237.78045 99.3165967,237.332031 C97.699552,236.860856 96.0282897,236.605407 94.3461733,236.571589 L82.4616587,236.569307 L82.4616587,261.326561 Z M150.306535,303.363876 L135.039562,303.363876 L135.039562,224.128163 L162.135,224.128163 C166.115261,224.071696 170.075137,224.706291 173.838429,226.003712 C177.125321,227.138139 180.158259,228.905229 182.766045,231.205236 C185.192373,233.459129 187.110522,236.204213 188.392693,239.257595 C189.665904,242.345312 190.339896,245.644964 190.381003,248.980587 L190.380776,249.648139 C190.415874,253.035465 189.738535,256.392341 188.392693,259.501026 C187.098244,262.46791 185.179049,265.120664 182.766045,267.278304 C180.149044,269.579203 177.101963,271.338606 173.800918,272.454821 C170.034613,273.737645 166.075844,274.363604 162.097489,274.305363 L150.294031,274.305363 L150.306535,303.363876 Z M150.306535,261.901729 L162.109993,261.901729 C164.044069,261.940675 165.967429,261.605255 167.774153,260.91394 C169.288775,260.319587 170.660779,259.412019 171.800332,258.250659 C172.84635,257.130186 173.650745,255.806552 174.163524,254.36202 C174.693771,252.885901 174.964512,251.329139 174.963759,249.760672 C174.975298,248.007586 174.70511,246.264031 174.163524,244.596659 C173.668933,243.050444 172.864892,241.621036 171.800332,240.395428 C170.675898,239.176286 169.302927,238.212647 167.774153,237.5696 C165.976266,236.842264 164.04896,236.489137 162.109993,236.531796 L150.306535,236.531796 L150.306535,261.901729 Z M253.349223,289.322262 C251.949056,292.411912 249.942052,295.18855 247.447494,297.487154 C244.882095,299.786976 241.885889,301.55495 238.632412,302.688678 C235.230903,303.853842 231.666218,304.465733 228.074184,304.502615 L227.304093,304.501709 C224.241116,304.538008 221.189898,304.116569 218.251441,303.251343 C215.564578,302.449416 213.029411,301.207184 210.749243,299.575266 C208.686234,298.058561 206.861397,296.242152 205.335157,294.186187 C203.728336,292.032629 202.385058,289.694486 201.333985,287.221647 C200.238208,284.521453 199.429359,281.713534 198.920778,278.844193 C198.342805,275.646719 198.058206,272.403121 198.069784,269.153854 L198.069784,258.488229 C198.063365,255.433607 198.318544,252.384012 198.833252,249.373059 C199.256734,246.929292 199.909832,244.531641 200.783483,242.211897 L201.121422,241.345707 C202.226759,238.44366 203.770103,235.728049 205.697763,233.293348 C207.523712,230.990372 209.686088,228.975526 212.112142,227.316597 C214.291728,225.909988 216.668425,224.835417 219.164208,224.128163 C221.599876,223.434222 224.11464,223.061414 226.644707,223.018354 L227.404122,223.015337 C231.354546,222.947713 235.286175,223.574065 239.020025,224.865879 C245.559969,227.112989 250.796219,232.098155 253.361727,238.519879 C254.800218,242.081434 255.681638,245.84328 255.974993,249.673146 L240.745531,249.673146 C240.655728,247.553743 240.302923,245.453711 239.695223,243.421315 C239.20464,241.781394 238.378605,240.26132 237.269513,238.957507 C236.144731,237.772515 234.756954,236.868746 233.218326,236.319234 C231.352613,235.679501 229.388474,235.374721 227.416626,235.41897 C226.288221,235.414964 225.163338,235.545081 224.065644,235.806584 C223.06672,236.050327 222.107041,236.433357 221.214809,236.944417 C219.685177,237.880271 218.399564,239.165885 217.46371,240.695516 C216.36906,242.448264 215.527185,244.346692 214.962977,246.334668 C214.469302,248.145428 214.126364,249.993946 213.937677,251.861287 C213.70926,254.020918 213.600728,256.191549 213.612582,258.363192 L213.612582,269.128846 C213.587744,271.95896 213.759037,274.787394 214.125232,277.593826 C214.405181,279.815785 214.94227,281.997707 215.725701,284.095731 C216.196483,285.290263 216.809407,286.423754 217.551236,287.47172 C218.218497,288.431612 219.037818,289.276273 219.976946,289.972453 C220.965431,290.703499 222.080214,291.246055 223.26541,291.572922 C224.5845,291.937069 225.948257,292.113852 227.316597,292.098076 C229.141315,292.119745 230.958637,291.862537 232.705675,291.335352 C234.236677,290.863864 235.636643,290.041865 236.794373,288.934649 C237.98284,287.754042 238.892732,286.322991 239.457654,284.745922 C240.180774,282.769681 240.602286,280.695845 240.70802,278.594119 L256,278.594119 C255.779336,282.302094 254.880899,285.938221 253.349223,289.322262 Z" fill="#398CCB"></path>
        <path d="M186.379603,92.4020709 L224.865879,114.62108 L224.865879,159.084107 L186.379603,181.303116 L169.294598,171.422722 L127.749927,195.407248 L86.4540783,171.560262 L69.6078929,181.303116 L31.1216177,159.046596 L31.1216177,114.62108 L69.6078929,92.4020709 L108.094168,114.62108 L108.094168,159.046596 L96.4507571,165.779818 L127.749927,183.853863 L159.297919,165.642278 L147.893328,159.046596 L147.893328,114.62108 L186.379603,92.4020709 Z M157.896259,126.199473 L157.896259,153.319918 L181.378138,166.873889 L181.378138,139.753443 L157.896259,126.199473 Z M214.862948,126.161962 L191.381069,139.715932 L191.381069,166.873889 L214.862948,153.282407 L214.862948,126.161962 Z M41.1245482,126.161962 L41.1245482,153.282407 L64.6064277,166.836378 L64.6064277,139.715932 L41.1245482,126.161962 Z M98.0912377,126.161962 L74.6093582,139.715932 L74.6093582,166.836378 L98.0912377,153.282407 L98.0912377,126.161962 Z M186.379603,103.980463 L162.897724,117.534434 L186.379603,131.100908 L209.861483,117.534434 L186.379603,103.980463 Z M69.6078929,103.942952 L46.1260135,117.534434 L69.6078929,131.063397 L93.0897724,117.534434 L69.6078929,103.942952 Z M88.7510013,35.0227606 L88.7510013,46.5636417 L53.1405685,67.1321676 L53.1405685,101.904855 L43.137638,107.681547 L43.137638,61.3554752 L88.7510013,35.0227606 Z M127.237277,0 L165.748559,22.2190095 L165.748559,34.4375891 L212.362215,61.3554752 L212.362215,107.393963 L202.359285,101.617271 L202.359285,67.1321676 L165.748559,45.9909739 L165.748559,66.6570284 L127.262284,88.8760379 L88.7760086,66.6570284 L88.7760086,22.2190095 L127.237277,0 Z M98.7789391,33.7598906 L98.7789391,60.880336 L122.235811,74.4343069 L122.235811,47.3263651 L98.7789391,33.7598906 Z M155.720621,33.7598906 L132.263749,47.3263651 L132.263749,74.4218033 L155.720621,60.880336 L155.720621,33.7598906 Z M127.237277,11.5533848 L103.780404,25.1073557 L127.237277,38.6613266 L150.719156,25.1073557 L127.237277,11.5533848 Z" fill="#398CCB"></path>
    </g>
</svg>

<svg preserveAspectRatio="xMidYMid" viewBox="0 0 256 305" xmlns="http://www.w3.org/2000/svg">
  <g fill="#398CCB">
    <path d="M28.57 244.484h21.982v11.153H28.571v25.308a16.88 16.88 0 0 0 .738 5.364 8.152 8.152 0 0 0 2.088 3.4 7.815 7.815 0 0 0 3.3 1.851c1.235.33 2.504.51 3.78.536l.547.002c1.15 0 2.338 0 3.563-.162l.727-.09 1.409-.16c.461-.054.915-.113 1.366-.188l.66-.105 1.24-.184c.401-.06.79-.124 1.175-.199l.918-.184.427-.09.79-.176.366-.087 1.476 10.39a18.505 18.505 0 0 1-3.752 1.6 35.9 35.9 0 0 1-4.513 1.113c-1.6.3-3.264.526-5.002.688a54.28 54.28 0 0 1-5.089.238 28.396 28.396 0 0 1-8.752-1.25 16.83 16.83 0 0 1-6.727-4.002 17.343 17.343 0 0 1-4.302-6.852 29.196 29.196 0 0 1-1.525-10.003v-26.758H0v-11.153h13.441v-14.417h15.13v14.417Zm53.88 29.271v29.609H67.156v-79.236h26.62a42.52 42.52 0 0 1 11.916 1.55 26.67 26.67 0 0 1 9.14 4.552 19.88 19.88 0 0 1 5.79 7.502 24.57 24.57 0 0 1 2.05 10.34 26.72 26.72 0 0 1-1.012 7.64 20.331 20.331 0 0 1-7.403 10.804 30.096 30.096 0 0 1-5.901 3.488l17.03 32.697v.713h-16.443L94.04 273.755H82.45Zm.012-12.428h11.315a17.868 17.868 0 0 0 6.252-1 10.866 10.866 0 0 0 4.39-2.914 10.528 10.528 0 0 0 2.112-3.589c.448-1.358.692-2.775.723-4.203l.002-.536a15.104 15.104 0 0 0-.95-5.576 9.865 9.865 0 0 0-2.85-4.001 12.066 12.066 0 0 0-4.14-2.176 19.143 19.143 0 0 0-4.97-.76l-11.884-.003v24.758Zm67.845 42.037H135.04v-79.236h27.095a34.41 34.41 0 0 1 11.703 1.876 26.633 26.633 0 0 1 8.928 5.201 23.307 23.307 0 0 1 5.627 8.053 26.358 26.358 0 0 1 1.988 9.723v.667a24.17 24.17 0 0 1-1.988 9.853 22.507 22.507 0 0 1-5.627 7.777 26.37 26.37 0 0 1-8.965 5.177 34.723 34.723 0 0 1-11.704 1.85h-11.803l.013 29.059Zm0-41.462h11.803a15.004 15.004 0 0 0 5.664-.988 11.553 11.553 0 0 0 4.026-2.663 11.178 11.178 0 0 0 2.364-3.889c.53-1.476.8-3.033.8-4.601a16.367 16.367 0 0 0-.8-5.164 11.966 11.966 0 0 0-2.364-4.202 11.59 11.59 0 0 0-4.026-2.825 14.267 14.267 0 0 0-5.664-1.038h-11.803v25.37Zm103.042 27.42a25.307 25.307 0 0 1-5.902 8.165 26.045 26.045 0 0 1-8.815 5.202 33.647 33.647 0 0 1-10.558 1.814l-.77-.001a30.759 30.759 0 0 1-9.053-1.25 25.345 25.345 0 0 1-7.502-3.677 25.707 25.707 0 0 1-5.414-5.389 33.672 33.672 0 0 1-4.001-6.964 41.575 41.575 0 0 1-2.413-8.378 53.408 53.408 0 0 1-.851-9.69v-10.666a53.43 53.43 0 0 1 .763-9.115 39.411 39.411 0 0 1 1.95-7.161l.338-.866a30.409 30.409 0 0 1 4.577-8.053 29.271 29.271 0 0 1 6.414-5.976 26.158 26.158 0 0 1 7.052-3.189 29.108 29.108 0 0 1 7.48-1.11l.76-.003a33.76 33.76 0 0 1 11.616 1.85 23.757 23.757 0 0 1 14.342 13.655 37.411 37.411 0 0 1 2.613 11.153h-15.23c-.09-2.12-.442-4.22-1.05-6.252a12.354 12.354 0 0 0-2.425-4.463 10.416 10.416 0 0 0-4.052-2.639 16.73 16.73 0 0 0-5.801-.9 14.242 14.242 0 0 0-3.351.388c-1 .243-1.959.626-2.851 1.137a11.328 11.328 0 0 0-3.751 3.752 21.969 21.969 0 0 0-2.501 5.639 34.01 34.01 0 0 0-1.025 5.526 58.767 58.767 0 0 0-.325 6.502v10.766a61.28 61.28 0 0 0 .512 8.465 28.92 28.92 0 0 0 1.6 6.502 15.992 15.992 0 0 0 1.826 3.376c.667.96 1.487 1.804 2.426 2.5a10.003 10.003 0 0 0 3.288 1.6 14.56 14.56 0 0 0 4.052.526 17.918 17.918 0 0 0 5.389-.763 10.303 10.303 0 0 0 4.088-2.4 11.253 11.253 0 0 0 2.664-4.19 20.969 20.969 0 0 0 1.25-6.15H256a30.396 30.396 0 0 1-2.65 10.727Z"/>
    <path d="m186.38 92.402 38.486 22.22v44.462l-38.486 22.22-17.085-9.881-41.545 23.984-41.296-23.847-16.846 9.743-38.486-22.256V114.62l38.486-22.219 38.486 22.22v44.425l-11.643 6.733 31.299 18.074 31.548-18.212-11.405-6.595V114.62l38.487-22.219ZM157.896 126.2v27.12l23.482 13.555v-27.12L157.896 126.2Zm56.967-.037-23.482 13.554v27.158l23.482-13.592v-27.12Zm-173.738 0v27.12l23.481 13.554v-27.12l-23.481-13.554Zm56.966 0L74.61 139.716v27.12l23.482-13.554v-27.12Zm88.289-22.182-23.482 13.554 23.482 13.567 23.481-13.567-23.481-13.554Zm-116.772-.037-23.482 13.591 23.482 13.53 23.482-13.53-23.482-13.591Zm19.143-68.92v11.54l-35.61 20.57v34.772l-10.003 5.777V61.355L88.75 35.023ZM127.237 0l38.512 22.219v12.219l46.613 26.917v46.039l-10.003-5.777V67.132l-36.61-21.141v20.666l-38.487 22.219-38.486-22.219V22.219L127.237 0ZM98.78 33.76v27.12l23.457 13.554V47.326L98.779 33.76Zm56.942 0-23.457 13.566v27.096L155.72 60.88V33.76Zm-28.484-22.207L103.78 25.107l23.457 13.554 23.482-13.554-23.482-13.554Z"/>
  </g>
</svg>
